icon/ir/ar-symbol.svg

<svg stroke-width="1.5" viewBox="0 0 24 24" fill="none" xmlns="http://www.w3.org/2000/svg" height="1em" width="1em">
  <path d="M2 15V9C2 5.68629 4.68629 3 8 3H16C19.3137 3 22 5.68629 22 9V15C22 18.3137 19.3137 21 16 21H8C4.68629 21 2 18.3137 2 15Z" stroke="currentColor" stroke-width="1.5"/>
  <path d="M13 15.5V12.7M15.8571 12.7C16.5714 12.7 18 12.7 18 10.6C18 8.5 16.5714 8.5 15.8571 8.5L13 8.5V12.7M15.8571 12.7C14.7143 12.7 13.4762 12.7 13 12.7M15.8571 12.7L18 15.5" stroke="currentColor" stroke-linecap="round" stroke-linejoin="round"/>
  <path d="M11 15.5L9.92857 13M5 15.5L6.07143 13M6.07143 13L8 8.5L9.92857 13M6.07143 13H9.92857" stroke="currentColor" stroke-linecap="round" stroke-linejoin="round"/>
</svg>

<svg width="24" height="24" stroke-width="1.5" fill="none" xmlns="http://www.w3.org/2000/svg"><path d="M2 15V9a6 6 0 0 1 6-6h8a6 6 0 0 1 6 6v6a6 6 0 0 1-6 6H8a6 6 0 0 1-6-6Z" stroke="currentColor"/><path d="M13 15.5v-2.8m2.857 0c.714 0 2.143 0 2.143-2.1s-1.429-2.1-2.143-2.1H13v4.2m2.857 0H13m2.857 0L18 15.5M11 15.5 9.929 13M5 15.5 6.071 13m0 0L8 8.5 9.929 13M6.07 13H9.93" stroke="currentColor" stroke-linecap="round" stroke-linejoin="round"/></svg>
